X:009
T: Trip to Killarney
N: O'Farrell's Pocket Companion v.1 (Sky ed. p.16)
D: O'Sullivan Meets O'Farrell track 15b
M: 6/8
L: 1/8
R: jig
Q: 320
K: Edor
A|: d2f agf|agf a2f|d2f agf|e2f g2e|
d2f agf|agf a2f|gbg faf|e2f g2e :|
fed dAF|DFA dAd|fed dAd|e2f g2e  |
fed dAF|DED dAF|G2d AGF|E2F G2E :|
D2d AGF|AGF AGF|D2d AGF|E2F G2E|
D2d AGF|AGF A2F|G2d AGF|E2F G2E :|
d3 cBc|dAF FED|d3 cBc|e2f g2e|
dfd cec|dAF FED|G2d AGF|E2F G2E :|
